Modules/BetterCms.Module.Root/Scss/assets/icons/editor-cms-file.svg

<svg height="20" width="17" xmlns="http://www.w3.org/2000/svg" viewBox="0 0 17 20"><path fill="#303646" fill-rule="evenodd" d="m15 17c0 .55-.45 1-1 1h-11c-.55 0-1-.44-1-1v-14c0-.55.45-1 1-1h11c.55 0 1 .44 1 1v14m-1-17h-11c-1.65 0-3 1.35-3 3v14c0 1.65 1.35 3 3 3h11c1.65 0 3-1.35 3-3v-14c0-1.65-1.35-3-3-3m-10 6c0-.55.45-1 1-1h7c.55 0 1 .44 1 1 0 .55-.45 1-1 1h-7c-.55 0-1-.44-1-1m0 4c0-.55.45-1 1-1h7c.55 0 1 .44 1 1 0 .55-.45 1-1 1h-7c-.55 0-1-.44-1-1m0 4c0-.55.45-1 1-1h7c.55 0 1 .44 1 1 0 .55-.45 1-1 1h-7c-.55 0-1-.44-1-1"/></svg>

<?xml version="1.0" encoding="utf-8"?>
<!-- Generator: Avocode 2.4.5 - http://avocode.com -->
<svg height="20" width="17" xmlns:xlink="http://www.w3.org/1999/xlink" xmlns="http://www.w3.org/2000/svg" viewBox="0 0 17 20">
    <path fill="#303646" fill-rule="evenodd" d="M 15 17 C 15 17.55 14.55 18 14 18 L 3 18 C 2.45 18 2 17.56 2 17 L 2 3 C 2 2.45 2.45 2 3 2 L 14 2 C 14.55 2 15 2.44 15 3 L 15 17 Z M 14 0 L 3 0 C 1.35 0 0 1.35 0 3 L 0 17 C 0 18.65 1.35 20 3 20 L 14 20 C 15.65 20 17 18.65 17 17 L 17 3 C 17 1.35 15.65 0 14 0 L 14 0 Z M 4 6 C 4 5.45 4.45 5 5 5 L 12 5 C 12.55 5 13 5.44 13 6 C 13 6.55 12.55 7 12 7 L 5 7 C 4.45 7 4 6.56 4 6 Z M 4 10 C 4 9.45 4.45 9 5 9 L 12 9 C 12.55 9 13 9.44 13 10 C 13 10.55 12.55 11 12 11 L 5 11 C 4.45 11 4 10.56 4 10 Z M 4 14 C 4 13.45 4.45 13 5 13 L 12 13 C 12.55 13 13 13.44 13 14 C 13 14.55 12.55 15 12 15 L 5 15 C 4.45 15 4 14.56 4 14 Z M 4 14" />
</svg>
